proprietary/assets/icons/geld-en-financien/stapel-munten.svg

<svg height="64" viewBox="0 0 64 64" width="64" xmlns="http://www.w3.org/2000/svg"><path d="m0 0h64v64h-64z" fill="none"/><path d="m31.5016 34c10.373 0 18.4984-4.618 18.4984-10.5075 0-.8654 0-4.1329 0-5.0014 0-5.8832-8.1254-10.4911-18.4984-10.4911-10.376 0-18.5016 4.6079-18.5016 10.4911v5.0014c0 1.0507.269 2.0582.7529 3.009-.4816.9447-.7529 1.9449-.7529 2.9896v5.0014c0 1.0484.2683 2.0538.7501 3.0027-.4824.9463-.7501 1.9494-.7501 2.9959v5.0014c0 5.8895 8.1256 10.5075 18.5016 10.5075 10.373 0 18.4984-4.618 18.4984-10.5075v-5.0014c0-.2245-.0339-.4433-.0573-.6639-1.2642 1.6137-6.4448 7.2704-17.9099 7.2704-11.9704 0-14.5641-4.6913-14.8298-5.4396-.0898-.2529-.0884-.3882-.0303-.4468 3.3669 2.3272 8.4917 3.7888 14.3289 3.7888 10.373 0 18.4984-4.618 18.4984-10.5075v-5.0014c0-.2245-.0339-.4433-.0573-.6639-1.2642 1.6137-6.4448 7.2704-17.9099 7.2704-11.9704 0-14.5641-4.6913-14.8298-5.4396-.0898-.2529-.0884-.3882-.0303-.4468 3.3669 2.3272 8.4917 3.7888 14.3289 3.7888zm-14.6466-15.5c0-3.6258 6.5568-6.565 14.645-6.565s14.645 2.9392 14.645 6.565-6.5568 6.565-14.645 6.565-14.645-2.9392-14.645-6.565z"/><path d="m28.6604 20.9681v.9021h2.0548v-.742c.4034.0255.8857.0255 1.3427.0255h.5074v.7165h2.0044v-.8221c3.678-.3998 5.4303-1.6858 5.4303-3.5601 0-.7293-.0755-1.0461-.4065-1.7914h-2.7167c.2804.691.3813 1.0365.3813 1.6729 0 .8222-.7847 1.4874-2.6884 1.7786v-2.3511h-2.0044v2.5237c-.2521.0128-.5074.0258-.8099.0258-.3562 0-.6871-.013-1.0402-.0258v-2.5237h-2.0548v2.3384c-1.8531-.2785-2.8176-.8766-2.8176-1.833 0-.5437.1008-.8605.3277-1.5385h-2.8649c-.2299.5693-.3056.9692-.3056 1.4969 0 1.8873 1.9036 3.2275 5.6604 3.7073z"/></svg>

<?xml version="1.0" encoding="utf-8"?>
<!-- Generator: Adobe Illustrator 18.0.0, SVG Export Plug-In . SVG Version: 6.00 Build 0)  -->
<svg version="1.2" baseProfile="tiny" xmlns="http://www.w3.org/2000/svg" xmlns:xlink="http://www.w3.org/1999/xlink" x="0px"
	 y="0px" width="64px" height="64px" viewBox="0 0 64 64" xml:space="preserve">
<g id="_x36_4px">
	<rect fill="none" width="64" height="64"/>
</g>
<g id="icon">
	<g>
		<path d="M31.5016,34C41.8746,34,50,29.382,50,23.4925c0-0.8654,0-4.1329,0-5.0014C50,12.6079,41.8746,8,31.5016,8
			C21.1256,8,13,12.6079,13,18.4911c0,0.8685,0,4.136,0,5.0014c0,1.0507,0.269,2.0582,0.7529,3.009
			C13.2713,27.4462,13,28.4464,13,29.4911v5.0014c0,1.0484,0.2683,2.0538,0.7501,3.0027C13.2677,38.4415,13,39.4446,13,40.4911
			v5.0014C13,51.382,21.1256,56,31.5016,56C41.8746,56,50,51.382,50,45.4925v-5.0014c0-0.2245-0.0339-0.4433-0.0573-0.6639
			c-1.2642,1.6137-6.4448,7.2704-17.9099,7.2704c-11.9704,0-14.5641-4.6913-14.8298-5.4396
			c-0.0898-0.2529-0.0884-0.3882-0.0303-0.4468C20.5396,43.5384,25.6644,45,31.5016,45C41.8746,45,50,40.382,50,34.4925v-5.0014
			c0-0.2245-0.0339-0.4433-0.0573-0.6639c-1.2642,1.6137-6.4448,7.2704-17.9099,7.2704c-11.9704,0-14.5641-4.6913-14.8298-5.4396
			c-0.0898-0.2529-0.0884-0.3882-0.0303-0.4468C20.5396,32.5384,25.6644,34,31.5016,34z M16.855,18.5
			c0-3.6258,6.5568-6.565,14.645-6.565s14.645,2.9392,14.645,6.565s-6.5568,6.565-14.645,6.565S16.855,22.1258,16.855,18.5z"/>
		<path d="M28.6604,20.9681v0.9021h2.0548v-0.742c0.4034,0.0255,0.8857,0.0255,1.3427,0.0255h0.5074v0.7165h2.0044v-0.8221
			C38.2477,20.6483,40,19.3623,40,17.488c0-0.7293-0.0755-1.0461-0.4065-1.7914h-2.7167c0.2804,0.691,0.3813,1.0365,0.3813,1.6729
			c0,0.8222-0.7847,1.4874-2.6884,1.7786V16.797h-2.0044v2.5237c-0.2521,0.0128-0.5074,0.0258-0.8099,0.0258
			c-0.3562,0-0.6871-0.013-1.0402-0.0258V16.797h-2.0548v2.3384c-1.8531-0.2785-2.8176-0.8766-2.8176-1.833
			c0-0.5437,0.1008-0.8605,0.3277-1.5385h-2.8649C23.0757,16.3332,23,16.7331,23,17.2608
			C23,19.1481,24.9036,20.4883,28.6604,20.9681z"/>
	</g>
</g>
</svg>
